X: 124
T:Da Aald Hill Grinnd
% Nottingham Music Database
S:Peter Kennedy Shetland cassette, via EF
Y:AB
M:4/4
K:G
M:6/8
P:A
|:D|"G"G2G "D7"G2A|"G"BAG G3|"C"edc "G"BAG|"Am"FAA "D7"AFD|
"G"G2G "D7"G2A|"G"BGG g3|"C"f2e "D7"e2A|"G"A2G "G"G2:|
K:D
P:B
|:F/2G/2|"D"A3 f2e|"D"dcd "A7"A3|"D"ABA "Bm"AGF|"Em"G2E "A7"EFG|
"D"A3 f2e|"D"dcd "A"ABA|"G"Bcd "A7"edc|"D"d3 d2:|


